icons/svg/landuse/logging.svg

<?xml version="1.0" encoding="UTF-8" standalone="no"?>
<!-- Created with Inkscape (http://www.inkscape.org/) -->

<svg
   xmlns:dc="http://purl.org/dc/elements/1.1/"
   xmlns:cc="http://creativecommons.org/ns#"
   xmlns:rdf="http://www.w3.org/1999/02/22-rdf-syntax-ns#"
   xmlns:svg="http://www.w3.org/2000/svg"
   xmlns="http://www.w3.org/2000/svg"
   xmlns:sodipodi="http://sodipodi.sourceforge.net/DTD/sodipodi-0.dtd"
   xmlns:inkscape="http://www.inkscape.org/namespaces/inkscape"
   version="1.0"
   width="580"
   height="580"
   id="svg2"
   sodipodi:version="0.32"
   inkscape:version="0.91 r"
   sodipodi:docname="logging.svg"
   inkscape:output_extension="org.inkscape.output.svg.inkscape">
  <metadata
     id="metadata10">
    <rdf:RDF>
      <cc:Work
         rdf:about="">
        <dc:format>image/svg+xml</dc:format>
        <dc:type
           rdf:resource="http://purl.org/dc/dcmitype/StillImage" />
        <cc:license
           rdf:resource="http://web.resource.org/cc/PublicDomain" />
        <dc:language>en</dc:language>
        <dc:title />
      </cc:Work>
    </rdf:RDF>
  </metadata>
  <sodipodi:namedview
     inkscape:window-height="1004"
     inkscape:window-width="1920"
     inkscape:pageshadow="2"
     inkscape:pageopacity="0.0"
     guidetolerance="10.0"
     gridtolerance="10.0"
     objecttolerance="10.0"
     borderopacity="1.0"
     bordercolor="#666666"
     pagecolor="#ffffff"
     id="base"
     showgrid="false"
     inkscape:zoom="0.35355339"
     inkscape:cx="872.31108"
     inkscape:cy="231.81219"
     inkscape:window-x="1680"
     inkscape:window-y="0"
     inkscape:current-layer="svg2"
     showguides="true"
     inkscape:guide-bbox="true"
     inkscape:window-maximized="1" />
  <defs
     id="defs4">
    <inkscape:perspective
       sodipodi:type="inkscape:persp3d"
       inkscape:vp_x="0 : 290 : 1"
       inkscape:vp_y="0 : 1000 : 0"
       inkscape:vp_z="580 : 290 : 1"
       inkscape:persp3d-origin="290 : 193.33333 : 1"
       id="perspective12" />
    <style
       type="text/css"
       id="style6">
   
    .fil0 {fill:#EF7900}
   
  </style>
    <inkscape:perspective
       id="perspective6807"
       inkscape:persp3d-origin="29.116032 : 19.410688 : 1"
       inkscape:vp_z="58.232063 : 29.116032 : 1"
       inkscape:vp_y="0 : 1000 : 0"
       inkscape:vp_x="0 : 29.116032 : 1"
       sodipodi:type="inkscape:persp3d" />
    <inkscape:perspective
       id="perspective6954"
       inkscape:persp3d-origin="290 : 193.33333 : 1"
       inkscape:vp_z="580 : 290 : 1"
       inkscape:vp_y="0 : 1000 : 0"
       inkscape:vp_x="0 : 290 : 1"
       sodipodi:type="inkscape:persp3d" />
    <inkscape:perspective
       id="perspective2541"
       inkscape:persp3d-origin="240 : 160 : 1"
       inkscape:vp_z="480 : 240 : 1"
       inkscape:vp_y="0 : 1000 : 0"
       inkscape:vp_x="0 : 240 : 1"
       sodipodi:type="inkscape:persp3d" />
    <inkscape:perspective
       id="perspective2750"
       inkscape:persp3d-origin="215 : 143.33333 : 1"
       inkscape:vp_z="430 : 215 : 1"
       inkscape:vp_y="0 : 1000 : 0"
       inkscape:vp_x="0 : 215 : 1"
       sodipodi:type="inkscape:persp3d" />
    <inkscape:perspective
       id="perspective2830"
       inkscape:persp3d-origin="0.5 : 0.33333333 : 1"
       inkscape:vp_z="1 : 0.5 : 1"
       inkscape:vp_y="0 : 1000 : 0"
       inkscape:vp_x="0 : 0.5 : 1"
       sodipodi:type="inkscape:persp3d" />
    <inkscape:perspective
       id="perspective3648"
       inkscape:persp3d-origin="0.5 : 0.33333333 : 1"
       inkscape:vp_z="1 : 0.5 : 1"
       inkscape:vp_y="0 : 1000 : 0"
       inkscape:vp_x="0 : 0.5 : 1"
       sodipodi:type="inkscape:persp3d" />
    <inkscape:perspective
       id="perspective3675"
       inkscape:persp3d-origin="0.5 : 0.33333333 : 1"
       inkscape:vp_z="1 : 0.5 : 1"
       inkscape:vp_y="0 : 1000 : 0"
       inkscape:vp_x="0 : 0.5 : 1"
       sodipodi:type="inkscape:persp3d" />
    <inkscape:perspective
       id="perspective3736"
       inkscape:persp3d-origin="0.5 : 0.33333333 : 1"
       inkscape:vp_z="1 : 0.5 : 1"
       inkscape:vp_y="0 : 1000 : 0"
       inkscape:vp_x="0 : 0.5 : 1"
       sodipodi:type="inkscape:persp3d" />
  </defs>
  <g
     id="g1327">
    <path
       d="M 66.275,1.768 C 24.94,1.768 1.704,23.139 1.704,66.804 L 1.704,516.927 C 1.704,557.771 22.598,579.156 63.896,579.156 L 515.92,579.156 C 557.227,579.156 578.149,558.84 578.149,516.927 L 578.149,66.804 C 578.149,24.203 557.227,1.768 514.627,1.768 C 514.624,1.768 66.133,1.625 66.275,1.768 z"
       style="fill:#111111;stroke:#eeeeee;stroke-width:3.40799999"
       id="path1329" />
  </g>
  <path
     style="color:#000000;display:inline;overflow:visible;visibility:visible;fill:#ffffff;fill-opacity:1;fill-rule:nonzero;stroke:none;marker:none;enable-background:accumulate"
     d="m 195.97782,325.86971 c -0.77409,99.47858 -60.5239,150.29019 -108.023953,178.85242 10.526985,-1.14836 87.911093,-1.99538 133.763213,-14.88714 18.20247,-10.12211 33.4844,-47.44639 33.4844,-47.44639 10.17702,76.98736 42.5529,87.05289 40.40138,87.659 21.18814,-2.83398 69.16927,-97.79247 69.16927,-97.79247 0,0 -6.39711,34.13919 -6.11228,47.24142 44.13493,34.39637 77.73436,40.54592 136.09065,19.11788 -33.02323,-18.79135 -49.13846,-30.33176 -70.12075,-56.18478 -11.73151,-14.45481 -9.78111,-72.06143 -9.31101,-117.32808 -12.84707,36.415 -162.23417,64.03366 -219.34092,0.76814 z"
     id="path3797-1"
     inkscape:connector-curvature="0"
     sodipodi:nodetypes="ccccccccscc" />
  <path
     style="color:#000000;clip-rule:nonzero;display:inline;overflow:visible;visibility:visible;opacity:1;isolation:auto;mix-blend-mode:normal;color-interpolation:sRGB;color-interpolation-filters:linearRGB;solid-color:#000000;solid-opacity:1;fill:#ffffff;fill-opacity:1;fill-rule:nonzero;stroke:none;stroke-width:1;stroke-linecap:butt;stroke-linejoin:miter;stroke-miterlimit:4;stroke-dasharray:none;stroke-dashoffset:0;stroke-opacity:1;marker:none;color-rendering:auto;image-rendering:auto;shape-rendering:auto;text-rendering:auto;enable-background:accumulate"
     d="m 363.52862,257.85544 c -0.53104,2.50102 -1.06676,5.1717 -1.51758,7.86524 -1.23239,7.36315 -0.93134,9.58316 -1.64844,14.13281 5.92886,0.002 15.90997,-0.21955 19.3274,1.22757 10.47169,4.43426 8.88578,20.61691 -6.63599,19.88571 l -98.04883,0.14453 c -3.65122,0.008 -7.22821,-1.0308 -10.30664,-2.99414 -12.5276,-7.99164 -20.66349,-16.31011 -25.73438,-23.38867 -2.53544,-3.53929 -4.30622,-6.76407 -5.50195,-9.3457 -0.2223,-0.47996 -0.4449,-1.00975 -0.66406,-1.5293 -20.09693,8.42613 -31.41522,19.91463 -31.43164,31.9043 -0.002,24.78912 47.34667,44.88496 105.7539,44.88476 58.40723,2e-4 105.75547,-20.09564 105.75391,-44.88476 -0.0512,-15.38904 -18.67513,-29.69404 -49.3457,-37.90235 z"
     id="path4174"
     inkscape:connector-curvature="0"
     sodipodi:nodetypes="cscscccssccscc" />
  <path
     style="fill:#ffffff;fill-opacity:1;stroke:none"
     d="m 102.09067,46.419428 c -6.828508,-0.168545 -14.197648,8.005817 -18.457038,20.324219 -5.0458,14.628161 -1.29854,29.690579 -1.14062,30.324219 0.043,0.16044 0.08057,0.36713 0.13867,0.51758 0.25313,0.67929 1.69033,4.230064 5.44922,6.507814 0.77349,0.47464 7.714077,4.49936 12.619138,4.21679 0.44416,-0.0242 1.3083,-0.0458 2.68555,-0.3496 5.92797,-1.33343 23.96896,-5.37181 43.35547,4.13281 12.36964,6.06603 25.41999,16.27162 39.13867,27.12891 12.1178,9.59634 24.61665,19.42361 37.13476,26.55274 16.26799,9.28477 40.53453,20.57126 56.73438,27.78711 7.98439,-11.22933 17.783,-27.09031 21.4707,-34.66016 3.80302,-7.80194 9.24224,-18.02626 12.82617,-24.74414 -4.55011,-2.15468 -9.72799,-2.69024 -16.42187,-3.19726 -12.172,-0.92474 -30.58518,-2.2393 -58.35742,-15.86525 -7.34469,-3.59979 -14.90203,-9.54081 -23.67774,-16.445314 -12.25622,-9.648177 -26.21656,-20.724272 -45.0918,-29.980468 -36.90585,-18.104246 -63.36235,-22.125058 -68.40624,-22.25 z m 234.61568,86.707412 c -1.93268,0.15617 -3.62642,1.36593 -4.55078,3.07227 -0.41892,0.78228 -10.42144,19.22006 -16.27539,31.23047 -5.65116,11.59436 -25.30471,41.96351 -33.25,49.48828 -8.57544,8.13833 -30.05423,29.5694 -34.46016,33.36246 5.88661,15.01726 22.20671,28.73758 26.79297,31.74609 l 65.29797,-0.14448 c 1.24606,-7.90569 4.00845,-30.31257 7.65633,-39.83907 2.09348,-5.47495 5.08215,-12.30225 8.35742,-19.28711 l 12.68945,5.86524 c 2.57772,1.18896 5.65997,0.26578 7.21485,-2.11915 0.21544,-0.32455 5.24436,-8.08589 12.29883,-22.56445 7.19286,-14.75874 8.93136,-22.12676 9,-22.42383 0.28234,-1.30306 0.1006,-2.63634 -0.45313,-3.76953 -0.55328,-1.13323 -1.53254,-2.02775 -2.73633,-2.60351 l -12.07812,-5.65821 3.99219,-7.92578 c 0.87298,-1.78744 0.66305,-3.94715 -0.4004,-5.63672 -1.04606,-1.64679 -5.22854,-6.36325 -21.86523,-14.52343 -17.51233,-8.59558 -25.76814,-8.38861 -27.23047,-8.26954 z"
     id="path4"
     inkscape:connector-curvature="0"
     sodipodi:nodetypes="ccccccccccccccccccccsccccccccccccccccc" />
</svg>

<svg width="580" height="580" viewBox="0 0 580 580" fill="none" xmlns="http://www.w3.org/2000/svg">
<g clip-path="url(#clip0)">
<path d="M66.275 1.7679C24.94 1.7679 1.70398 23.1389 1.70398 66.8039V516.927C1.70398 557.771 22.598 579.156 63.896 579.156H515.92C557.227 579.156 578.149 558.84 578.149 516.927V66.8039C578.149 24.2029 557.227 1.7679 514.627 1.7679C514.624 1.7679 66.133 1.6249 66.275 1.7679Z" fill="#111111" stroke="#EEEEEE" stroke-width="3.408"/>
<path d="M195.978 325.87C195.204 425.348 135.454 476.16 87.9539 504.722C98.4808 503.574 175.865 502.727 221.717 489.835C239.92 479.713 255.201 442.389 255.201 442.389C265.378 519.376 297.754 529.441 295.603 530.048C316.791 527.214 364.772 432.255 364.772 432.255C364.772 432.255 358.375 466.394 358.66 479.497C402.795 513.893 436.394 520.042 494.75 498.614C461.727 479.823 445.612 468.283 424.63 442.43C412.898 427.975 414.849 370.368 415.319 325.102C402.472 361.517 253.085 389.135 195.978 325.87V325.87Z" fill="white"/>
<path d="M363.529 257.855C362.998 260.356 362.462 263.027 362.011 265.721C360.779 273.084 361.08 275.304 360.363 279.854C366.291 279.856 376.273 279.634 379.69 281.081C390.162 285.515 388.576 301.698 373.054 300.967L275.005 301.111C271.354 301.119 267.777 300.081 264.699 298.117C252.171 290.126 244.035 281.807 238.964 274.729C236.429 271.189 234.658 267.964 233.462 265.383C233.24 264.903 233.017 264.373 232.798 263.854C212.701 272.28 201.383 283.768 201.367 295.758C201.365 320.547 248.713 340.643 307.12 340.643C365.528 340.643 412.876 320.547 412.874 295.758C412.823 280.369 394.199 266.064 363.529 257.855Z" fill="white"/>
<path d="M102.091 46.4196C95.2621 46.251 87.893 54.4254 83.6336 66.7438C78.5878 81.3719 82.3351 96.4343 82.493 97.068C82.536 97.2284 82.5736 97.4351 82.6317 97.5856C82.8848 98.2649 84.322 101.816 88.0809 104.093C88.8544 104.568 95.795 108.593 100.7 108.31C101.144 108.286 102.008 108.264 103.386 107.961C109.314 106.627 127.355 102.589 146.741 112.093C159.111 118.159 172.161 128.365 185.88 139.222C197.998 148.819 210.496 158.646 223.014 165.775C239.282 175.06 263.549 186.346 279.749 193.562C287.733 182.333 297.532 166.472 301.22 158.902C305.023 151.1 310.462 140.876 314.046 134.158C309.496 132.003 304.318 131.468 297.624 130.961C285.452 130.036 267.039 128.721 239.266 115.095C231.922 111.496 224.364 105.555 215.589 98.65C203.332 89.0018 189.372 77.9257 170.497 68.6695C133.591 50.5653 107.135 46.5445 102.091 46.4196V46.4196ZM336.706 133.127C334.774 133.283 333.08 134.493 332.156 136.199C331.737 136.982 321.734 155.419 315.88 167.43C310.229 179.024 290.575 209.393 282.63 216.918C274.055 225.056 252.576 246.487 248.17 250.28C254.057 265.298 270.377 279.018 274.963 282.027L340.261 281.882C341.507 273.976 344.269 251.569 347.917 242.043C350.011 236.568 352.999 229.741 356.275 222.756L368.964 228.621C371.542 229.81 374.624 228.887 376.179 226.502C376.394 226.177 381.423 218.416 388.478 203.938C395.671 189.179 397.409 181.811 397.478 181.514C397.76 180.211 397.578 178.877 397.025 177.744C396.471 176.611 395.492 175.716 394.288 175.141L382.21 169.482L386.202 161.557C387.075 159.769 386.865 157.61 385.802 155.92C384.756 154.273 380.573 149.557 363.937 141.396C346.424 132.801 338.169 133.008 336.706 133.127V133.127Z" fill="white"/>
</g>
<defs>
<clipPath id="clip0">
<path d="M0 0H580V580H0V0Z" fill="white"/>
</clipPath>
</defs>
</svg>
